X:1
T:Con alma
M:4/4
L:1/4
C:Dizzy Gillespie
Q:1/4=160
%%staves (chords melody)
K:C
%%text (medium)
%%vskip 20
% A %%%%%%%%%%%%%%%%%%%%%%%%%%%%%%%%%%%%
P:A
V:chords
"Emaj7"x2 "G#7/D#"x2 | "C#m7"x2 "-/B"x2 | "Fm7b5/Bb"x2 "Bb7"x2 | "Ebmaj7"x2 "Ebm7"x "Ab7"x |
"Dbmaj7"x2 "F7/C"x2 | "Bbm7"x2 "-/Ab"x2 | "Dm7b5/G"x2 "G7"x2 | "Cmaj7"x2 x2 :|
V:melody
^G2G2 | ^G2G2 | ^G>^A/B// AG | =G2_G_A |
F2F2 | F2F2 | F>G/_A// GF | E4 :|
% B %%%%%%%%%%%%%%%%%%%%%%%%%%%%%%%%%%%%
P:B
V:chords
"Cm7b5"x2 x2 | "F7"x2 x2 | "F#m7"x2 x2 | "B7"x2 x2 |
"Emaj7"x2 x2 | x2 x2 | "Fm7"x2 x2 | "Bb7"x2 "B7"x2 ||
V:melody
_G/>F/ _E//_D//E/- E2- | E2 (3F_G_A | =A/>^G/ ^F//E//F/- F2- | F2 ^GA |
B4- | B4 | _B4- | B4 ||
% A %%%%%%%%%%%%%%%%%%%%%%%%%%%%%%%%%%%%
P:A
V:chords
"Emaj7"x2 "G#7/D#"x2 | "C#m7"x2 "-/B"x2 | "Fm7b5/Bb"x2 "Bb7"x2 | "Ebmaj7"x2 "Ebm7"x "Ab7"x |
"Dbmaj7"x2 "F7/C"x2 | "Bbm7"x2 "-/Ab"x2 | "Dm7b5/G"x2 "G7"x2 | "Cmaj7"x2 x2 |]
V:melody
^G2G2 | ^G2G2 | ^G>^A/B// AG | =G2_G_A |
F2F2 | F2F2 | F>G/_A// GF | E4 |]
